libs/ui/packages/crypto-icons/src/svg/EBST.svg

<svg width="24" height="24" viewBox="0 0 24 24" fill="none">
<path fill-rule="evenodd" clip-rule="evenodd" d="M8.196 12.4305C8.17666 12.1609 8.17541 11.8903 8.19225 11.6205H6.09225L3.75 9.74701H8.6205C9.0754 8.63732 9.85053 7.68827 10.847 7.02092C11.8435 6.35356 13.0162 5.99815 14.2155 6.00001C17.5485 6.00001 20.25 8.68651 20.25 12C20.25 15.3135 17.5485 18 14.2155 18C13.0256 18.0018 11.8617 17.6519 10.87 16.9943C9.87826 16.3368 9.10298 15.4008 8.6415 14.304H3.75L6.09225 12.4305H8.196ZM17.6528 12.1118C17.6528 11.4893 17.5688 10.9463 17.4 10.4828C17.2313 10.0193 16.9972 9.63076 16.6987 9.32026C16.3995 9.00901 16.0455 8.77426 15.6353 8.61676C15.225 8.45926 14.7802 8.37976 14.298 8.37976C13.7775 8.37976 13.293 8.46826 12.8445 8.64526C12.396 8.82226 12.0083 9.07126 11.6805 9.39151C11.3528 9.71251 11.0955 10.0995 10.9073 10.554C10.719 11.0085 10.6252 11.514 10.6252 12.069C10.6252 12.633 10.719 13.1378 10.9073 13.5825C11.0948 14.0273 11.355 14.403 11.6873 14.709C12.0203 15.0158 12.4133 15.252 12.8663 15.42C13.3439 15.5917 13.8483 15.6768 14.3558 15.6713C15.657 15.6713 16.6508 15.2115 17.3348 14.2928L16.1775 13.3748C15.9847 13.6523 15.7395 13.8698 15.4403 14.0273C15.1418 14.1848 14.775 14.2643 14.3415 14.2643C14.091 14.2643 13.8495 14.2215 13.6185 14.1353C13.3875 14.049 13.1797 13.932 12.996 13.7835C12.8115 13.6367 12.6597 13.453 12.5502 13.2442C12.4407 13.0353 12.3759 12.806 12.36 12.5708H17.6385C17.6482 12.4943 17.6528 12.4178 17.6528 12.3413V12.1118ZM15.9172 11.3363H12.36C12.399 10.8488 12.5985 10.449 12.96 10.1378C13.3223 9.82726 13.7625 9.67126 14.2838 9.67126C14.5627 9.67126 14.8065 9.71626 15.0135 9.80776C15.2205 9.89926 15.3922 10.0208 15.5272 10.1738C15.6622 10.3268 15.7605 10.5038 15.8235 10.7048C15.8868 10.9092 15.9184 11.1222 15.9172 11.3363Z" fill="#1693D4"/>
</svg>

<svg width="24" height="24" viewBox="0 0 24 24" fill="none"><path fill="#1693d4" fill-rule="evenodd" d="M8.196 12.43q-.029-.405-.004-.81h-2.1L3.75 9.748h4.87A6.04 6.04 0 0 1 14.217 6c3.333 0 6.034 2.687 6.034 6s-2.701 6-6.034 6a6.04 6.04 0 0 1-5.574-3.696H3.75l2.342-1.873zm9.457-.318q0-.934-.253-1.63a3.3 3.3 0 0 0-.701-1.162 2.9 2.9 0 0 0-1.064-.703 3.7 3.7 0 0 0-1.337-.237q-.78 0-1.453.265a3.5 3.5 0 0 0-1.165.747 3.5 3.5 0 0 0-.773 1.162q-.282.682-.282 1.515 0 .846.282 1.513.282.668.78 1.127.5.46 1.18.711a4.2 4.2 0 0 0 1.489.251q1.952 0 2.979-1.378l-1.158-.918a2.05 2.05 0 0 1-.737.652q-.448.237-1.098.237-.376 0-.724-.129a2.2 2.2 0 0 1-.622-.351 1.7 1.7 0 0 1-.636-1.213h5.279q.014-.115.014-.23zm-1.736-.776H12.36q.058-.731.6-1.198t1.324-.467q.418 0 .73.137.31.136.513.366t.297.53q.095.31.093.632" clip-rule="evenodd"/></svg>
